src/images/problem-7.svg

<svg width="470" height="360" viewBox="0 0 470 360" fill="none" xmlns="http://www.w3.org/2000/svg">
<mask id="mask0" mask-type="alpha" maskUnits="userSpaceOnUse" x="0" y="0" width="470" height="360">
<rect width="470" height="360" fill="white"/>
</mask>
<g mask="url(#mask0)">
<path d="M219.42 29.9995C143.9 37.7895 85 101.62 85 179.2C85 262.04 152.16 329.2 235 329.2C312.59 329.2 376.41 270.3 384.2 194.78" stroke="#B2B2B2" stroke-width="2" stroke-linecap="round" stroke-linejoin="round"/>
<path d="M250.58 29.9995C320.99 37.2605 376.94 93.2205 384.2 163.62" stroke="#231F20" stroke-width="2" stroke-linecap="round" stroke-linejoin="round"/>
<path d="M122.87 222.02C117.78 208.72 115 194.29 115 179.2C115 149.07 126.099 121.54 144.44 100.47" stroke="#B2B2B2" stroke-width="2" stroke-linecap="round" stroke-linejoin="round"/>
<path d="M135.811 246.75C157.412 278.41 193.782 299.2 235.001 299.2C296.001 299.2 346.362 253.69 354.001 194.78" stroke="#B2B2B2" stroke-width="2" stroke-linecap="round" stroke-linejoin="round"/>
<path d="M165.049 81.6802C180.759 70.3902 199.309 62.8102 219.419 60.2002" stroke="#B2B2B2" stroke-width="2" stroke-linecap="round" stroke-linejoin="round"/>
<path d="M345.061 131.299C349.471 141.419 352.532 152.27 354.001 163.619" stroke="#231F20" stroke-width="2" stroke-linecap="round" stroke-linejoin="round"/>
<path d="M250.58 60.1997C280.14 64.0297 306.32 78.6197 325.07 99.8997" stroke="#231F20" stroke-width="2" stroke-linecap="round" stroke-linejoin="round"/>
<path d="M250.58 90.5493C287.809 97.0393 317.17 126.4 323.65 163.619" stroke="#231F20" stroke-width="2" stroke-linecap="round" stroke-linejoin="round"/>
<path d="M287.789 252.08C306.339 238.641 319.549 218.28 323.649 194.78" stroke="#B2B2B2" stroke-width="2" stroke-linecap="round" stroke-linejoin="round"/>
<path d="M219.42 90.5493C177.14 97.9193 145 134.81 145 179.199C145 228.9 185.3 269.199 235 269.199C244.731 269.199 254.11 267.65 262.89 264.779" stroke="#B2B2B2" stroke-width="2" stroke-linecap="round" stroke-linejoin="round"/>
<path d="M250.58 121.25C271.2 126.771 287.43 143 292.96 163.62" stroke="#231F20" stroke-width="2" stroke-linecap="round" stroke-linejoin="round"/>
<path d="M219.42 121.25C193.84 128.101 175 151.45 175 179.2C175 212.34 201.87 239.2 235 239.2C262.75 239.2 286.1 220.36 292.96 194.78" stroke="#B2B2B2" stroke-width="2" stroke-linecap="round" stroke-linejoin="round"/>
<path fill-rule="evenodd" clip-rule="evenodd" d="M250.002 179.199C250.002 170.915 243.286 164.199 235.002 164.199C226.718 164.199 220.002 170.915 220.002 179.199C220.002 187.483 226.718 194.199 235.002 194.199C243.286 194.199 250.002 187.483 250.002 179.199Z" stroke="#231F20" stroke-width="2" stroke-linecap="round" stroke-linejoin="round"/>
<path fill-rule="evenodd" clip-rule="evenodd" d="M392.413 179.199C392.413 92.4929 321.936 22.1987 235.004 22.1987C148.071 22.1987 77.5938 92.4929 77.5938 179.199C77.5938 265.905 148.071 336.199 235.004 336.199C321.936 336.199 392.413 265.905 392.413 179.199Z" stroke="#231F20" stroke-width="2" stroke-linecap="round" stroke-linejoin="round"/>
<path d="M250.002 179.199H384.199" stroke="#231F20" stroke-width="2" stroke-linecap="round" stroke-linejoin="round"/>
<path fill-rule="evenodd" clip-rule="evenodd" d="M285.734 259.2C285.734 264.722 281.257 269.2 275.734 269.2C270.212 269.2 265.734 264.722 265.734 259.2C265.734 253.678 270.212 249.2 275.734 249.2C281.257 249.2 285.734 253.678 285.734 259.2Z" stroke="#B2B2B2" stroke-width="2" stroke-linecap="round" stroke-linejoin="round"/>
<path fill-rule="evenodd" clip-rule="evenodd" d="M280.734 259.2C280.734 261.962 278.496 264.2 275.734 264.2C272.973 264.2 270.734 261.962 270.734 259.2C270.734 256.438 272.973 254.2 275.734 254.2C278.496 254.2 280.734 256.438 280.734 259.2Z" stroke="#B2B2B2" stroke-width="2" stroke-linecap="round" stroke-linejoin="round"/>
<path fill-rule="evenodd" clip-rule="evenodd" d="M148.938 98.8561C144.155 96.0941 142.516 89.9791 145.277 85.1961C148.039 80.4131 154.155 78.7741 158.938 81.5361C163.72 84.2971 165.359 90.4131 162.598 95.1961C159.836 99.9791 153.72 101.618 148.938 98.8561Z" stroke="#B2B2B2" stroke-width="2" stroke-linecap="round" stroke-linejoin="round"/>
<path fill-rule="evenodd" clip-rule="evenodd" d="M151.437 94.5263C149.045 93.1453 148.226 90.0883 149.607 87.6963C150.987 85.3043 154.045 84.4853 156.437 85.8663C158.828 87.2473 159.647 90.3043 158.267 92.6963C156.886 95.0883 153.828 95.9073 151.437 94.5263Z" stroke="#B2B2B2" stroke-width="2" stroke-linecap="round" stroke-linejoin="round"/>
<path fill-rule="evenodd" clip-rule="evenodd" d="M123.471 243.503C118.688 240.741 117.049 234.625 119.811 229.843C122.572 225.06 128.688 223.421 133.471 226.183C138.254 228.943 139.893 235.06 137.131 239.843C134.369 244.625 128.254 246.264 123.471 243.503Z" stroke="#B2B2B2" stroke-width="2" stroke-linecap="round" stroke-linejoin="round"/>
<path fill-rule="evenodd" clip-rule="evenodd" d="M125.97 239.173C123.578 237.792 122.759 234.735 124.14 232.343C125.521 229.951 128.578 229.132 130.97 230.513C133.362 231.893 134.181 234.951 132.8 237.343C131.419 239.735 128.362 240.554 125.97 239.173Z" stroke="#B2B2B2" stroke-width="2" stroke-linecap="round" stroke-linejoin="round"/>
<path fill-rule="evenodd" clip-rule="evenodd" d="M342.626 101.67H328.602C328.244 101.67 327.914 101.861 327.735 102.17L320.724 114.316C320.545 114.625 320.545 115.006 320.724 115.316L327.735 127.46C327.914 127.77 328.244 127.96 328.602 127.96H342.626C342.982 127.96 343.313 127.77 343.491 127.46L350.504 115.316C350.682 115.006 350.682 114.625 350.504 114.316L343.491 102.17C343.313 101.861 342.982 101.67 342.626 101.67Z" stroke="#1A1A1A" stroke-width="2" stroke-linecap="round" stroke-linejoin="round"/>
</g>
</svg>

<svg width="470" height="360" fill="none" xmlns="http://www.w3.org/2000/svg"><mask id="a" maskUnits="userSpaceOnUse" x="0" y="0" width="470" height="360"><path fill="#fff" d="M0 0h470v360H0z"/></mask><g mask="url(#a)" stroke-width="2" stroke-linecap="round" stroke-linejoin="round"><path d="M219.42 30C143.9 37.79 85 101.62 85 179.2c0 82.84 67.16 150 150 150 77.59 0 141.41-58.9 149.2-134.42" stroke="#B2B2B2"/><path d="M250.58 30c70.41 7.26 126.36 63.22 133.62 133.62" stroke="#231F20"/><path d="M122.87 222.02c-5.09-13.3-7.87-27.73-7.87-42.82 0-30.13 11.099-57.66 29.44-78.73M135.811 246.75c21.601 31.66 57.971 52.45 99.19 52.45 61 0 111.361-45.51 119-104.42M165.049 81.68a119.368 119.368 0 0154.37-21.48" stroke="#B2B2B2"/><path d="M345.061 131.299a119.12 119.12 0 018.94 32.32M250.58 60.2c29.56 3.83 55.74 18.42 74.49 39.7M250.58 90.55c37.229 6.49 66.59 35.85 73.07 73.069" stroke="#231F20"/><path d="M287.789 252.08c18.55-13.439 31.76-33.8 35.86-57.3M219.42 90.55C177.14 97.92 145 134.81 145 179.198c0 49.701 40.3 90 90 90 9.731 0 19.11-1.549 27.89-4.42" stroke="#B2B2B2"/><path d="M250.58 121.25c20.62 5.521 36.85 21.75 42.38 42.37" stroke="#231F20"/><path d="M219.42 121.25c-25.58 6.851-44.42 30.2-44.42 57.95 0 33.14 26.87 60 60 60 27.75 0 51.1-18.84 57.96-44.42" stroke="#B2B2B2"/><path clip-rule="evenodd" d="M250.002 179.199c0-8.284-6.716-15-15-15-8.284 0-15 6.716-15 15 0 8.284 6.716 15 15 15 8.284 0 15-6.716 15-15z" stroke="#231F20"/><path clip-rule="evenodd" d="M392.413 179.199c0-86.706-70.477-157-157.409-157-86.933 0-157.41 70.294-157.41 157s70.477 157 157.41 157c86.932 0 157.409-70.294 157.409-157z" stroke="#231F20"/><path d="M250.002 179.199h134.197" stroke="#231F20"/><path clip-rule="evenodd" d="M285.734 259.2c0 5.522-4.477 10-10 10-5.522 0-10-4.478-10-10s4.478-10 10-10c5.523 0 10 4.478 10 10z" stroke="#B2B2B2"/><path clip-rule="evenodd" d="M280.734 259.2a5 5 0 11-10 0 5 5 0 1110 0zM148.938 98.856c-4.783-2.762-6.422-8.877-3.661-13.66 2.762-4.783 8.878-6.422 13.661-3.66 4.782 2.761 6.421 8.877 3.66 13.66-2.762 4.783-8.878 6.422-13.66 3.66z" stroke="#B2B2B2"/><path clip-rule="evenodd" d="M151.437 94.526a4.999 4.999 0 01-1.83-6.83 5 5 0 111.83 6.83zM123.471 243.503c-4.783-2.762-6.422-8.878-3.66-13.66 2.761-4.783 8.877-6.422 13.66-3.66 4.783 2.76 6.422 8.877 3.66 13.66-2.762 4.782-8.877 6.421-13.66 3.66z" stroke="#B2B2B2"/><path clip-rule="evenodd" d="M125.97 239.173a4.999 4.999 0 01-1.83-6.83 4.999 4.999 0 016.83-1.83 4.999 4.999 0 011.83 6.83 4.999 4.999 0 01-6.83 1.83z" stroke="#B2B2B2"/><path clip-rule="evenodd" d="M342.626 101.67h-14.024c-.358 0-.688.191-.867.5l-7.011 12.146a.998.998 0 000 1l7.011 12.144a1 1 0 00.867.5h14.024c.356 0 .687-.19.865-.5l7.013-12.144c.178-.31.178-.691 0-1l-7.013-12.146a1 1 0 00-.865-.5z" stroke="#1A1A1A"/></g></svg>
